X:6543
T:The Blackberry Blossom
O:england
M:4/4
L:1/8
C:Trad
R:Hornpipe
K:G
GABG FGAF|EFGE D4|EFGE DEFA|BDGB ADFA|GABG FGAF|EFGE D4|EFGE DEFA|B_BA(G
G4):|
BdeB de2d|edBA BGED|BdeB de2d|edBA B4|Bdgf eded|BdBA BGED|DEGA BGED|B_BA
(G G4):|


